X:101
T:Mother Midnight. JJo8.101
B:J.Johnson Choice Collection Vol 8 1758
Z:vmp.Simon Wilson 2013 www.village-music-project.org.uk
M:6/8
L:1/8
Q:3/8=120
K:D
A|ded cBc|d3dcB|ABG F2E|FGED2E|
FDF AGF|G3EFG|ABc dB^G|A3-A2:|
|:E|AB=c BAB|G3EFG|B^cd cBc|
A3ABc|d3def|e3efg|afd gec|d3-d2:|
